X: 09025
T: D and J HORNPIPE
C: Bob McQuillen 15 Mar 92
B: Bob's Note Book 9 #25
%R: hornpipe, reel
Z: 2019 John Chambers <jc:trillian.mit.edu>
M: C
L: 1/8
K: D
FE \
| DFAd BAFE | DFAd f2fa | gbag f2df | edBd AGFE |
| DFAd BAFE | DFAd f2fa | gbag fded | A2d2 d2 :|
|: cd \
| edfd gfed | cdec A2fe | dfab afde | fgaf d2fa |
| bgbg b2gb | afaf a2fa | gfed ceag | f2d2 d2 :|
%%begintext align
%% Last night was such
%% fun. Deanna Stiles (flute), Janie Orzechowski (fiddle),
%% and I (piano) played for a dance in Francestown (20
%% minuts from my house), and we had such a good time.
%% You should have heard those two sail into Cincinatti,
%% Durang's, and Bricklayer's - They were just wonderful!
%%endtext

%%sep 1 1 500

%%sep 1 1 500

